src/assets/icons/categories/icon-cat-educationAndTraining.svg

<svg xmlns="http://www.w3.org/2000/svg" width="32" height="32" viewBox="0 0 32 32">
  <g fill="none" fill-rule="evenodd">
    <circle cx="16" cy="16" r="16" fill="#FC6D00"/>
    <path fill="#FFFFFF" d="M16,22.041 C16.08,22.041 16.159,22.022 16.231,21.984 L24,17.931 L24,18.913 C24,21.209 20.957,24.413 16.001,24.413 C14.229,24.413 12.706,23.999 11.475,23.368 C11.49,23.248 11.5,23.125 11.5,23 C11.5,21.924 10.921,20.94 10,20.409 L10,18.975 L15.769,21.984 C15.841,22.022 15.92,22.041 16,22.041 Z M10.4829,22.7705 C10.4819,22.7695 10.4809,22.7695 10.4799,22.7685 C10.4889,22.8445 10.4999,22.9205 10.4999,22.9995 C10.4999,23.4135 10.3739,23.7985 10.1579,24.1175 C10.0139,24.3305 9.8299,24.5145 9.6179,24.6585 C9.2979,24.8745 8.9139,24.9995 8.4999,24.9995 C8.0869,24.9995 7.7019,24.8745 7.3829,24.6585 C7.1699,24.5145 6.9859,24.3305 6.8419,24.1175 C6.6259,23.7985 6.4999,23.4135 6.4999,22.9995 C6.4999,22.8925 6.5109,22.7865 6.5269,22.6835 C6.5339,22.6445 6.5439,22.6075 6.5529,22.5695 C6.5669,22.5065 6.5819,22.4435 6.6019,22.3825 C6.6159,22.3405 6.6329,22.2995 6.6499,22.2575 C6.6719,22.2035 6.6949,22.1495 6.7219,22.0975 C6.7419,22.0585 6.7639,22.0205 6.7859,21.9825 C6.8179,21.9305 6.8519,21.8795 6.8879,21.8305 C6.9109,21.7985 6.9349,21.7665 6.9599,21.7355 C7.0029,21.6835 7.0499,21.6355 7.0979,21.5885 C7.1219,21.5635 7.1449,21.5395 7.1709,21.5165 C7.2279,21.4655 7.2889,21.4205 7.3509,21.3765 C7.3729,21.3605 7.3929,21.3435 7.4159,21.3285 C7.4939,21.2785 7.5769,21.2335 7.6619,21.1945 C7.6719,21.1895 7.6809,21.1835 7.6909,21.1785 C7.7899,21.1355 7.8939,21.0985 7.9999,21.0715 L7.9999,21.0435 L7.9999,18.9135 L7.9999,17.9315 L8.9999,18.4525 L8.9999,18.9135 L8.9999,21.0435 L9.2999,21.1745 C9.9569,21.4615 10.4009,22.0735 10.4829,22.7705 Z M27.7332,13.9709 C27.8972,14.0579 28.0002,14.2269 28.0002,14.4129 C28.0002,14.5989 27.8972,14.7689 27.7332,14.8549 L16.0002,20.9769 L4.2672,14.8549 C4.1032,14.7689 4.0002,14.5989 4.0002,14.4129 C4.0002,14.2269 4.1032,14.0579 4.2672,13.9709 L15.7692,7.9699 C15.9142,7.8949 16.0862,7.8949 16.2312,7.9699 L27.7332,13.9709 Z"/>
  </g>
</svg>

<svg xmlns="http://www.w3.org/2000/svg" viewBox="0 0 32 32"><g fill="none" fill-rule="evenodd"><circle cx="16" cy="16" r="16" fill="#FC6D00"/><path fill="#FFFFFF" d="M16 22.04a.5.5 0 0 0 .23-.06L24 17.93v.98c0 2.3-3.04 5.5-8 5.5a9.9 9.9 0 0 1-4.53-1.04A2.97 2.97 0 0 0 10 20.4v-1.43l5.77 3a.5.5 0 0 0 .23.06zm-5.52.73l.02.23a1.99 1.99 0 0 1-2 2 1.99 1.99 0 0 1-2-2l.03-.32.02-.11.05-.19.05-.12a1.9 1.9 0 0 1 .45-.67l.07-.07.18-.14.07-.05.24-.14.03-.01c.1-.04.2-.08.31-.1v-3.15l1 .52v2.59l.3.13a2 2 0 0 1 1.18 1.6zm17.25-8.8a.5.5 0 0 1 0 .88L16 20.98 4.27 14.85a.5.5 0 0 1 0-.88l11.5-6a.5.5 0 0 1 .46 0l11.5 6z"/></g></svg>
